images_breeze_svg/cmd/32/toggletabbarvisibility.svg

<svg height="32" viewBox="0 0 32 32" width="32" xmlns="http://www.w3.org/2000/svg"><path d="m4 5v1.33333l.0254237 20.638425-.0254237 1.028245h24l.025424-1.028245-.025424-17.971765-1.025424.0282453-2.974566-.0282453h-10.00001l-.00003-.99999.00003-3h-1-8zm11.00003 0-.00003 3h10.99997l.00003-3zm-10.00003 1h8l.02542 3.9717547h11.00001l2.97457.0282453v17l-21.9745763-.028245z" fill="#4d4d4d" stroke-width="1.33333"/></svg>

<?xml version="1.0" encoding="UTF-8" standalone="no"?>
<svg
   xmlns:dc="http://purl.org/dc/elements/1.1/"
   xmlns:cc="http://creativecommons.org/ns#"
   xmlns:rdf="http://www.w3.org/1999/02/22-rdf-syntax-ns#"
   xmlns:svg="http://www.w3.org/2000/svg"
   xmlns="http://www.w3.org/2000/svg"
   xmlns:sodipodi="http://sodipodi.sourceforge.net/DTD/sodipodi-0.dtd"
   xmlns:inkscape="http://www.inkscape.org/namespaces/inkscape"
   viewBox="0 0 32 32"
   version="1.1"
   id="svg4"
   sodipodi:docname="toggletabbarvisibility.svg"
   width="32"
   height="32"
   inkscape:version="0.92.4 (unknown)"
   inkscape:export-filename="/home/rizmut/Dokumen/Rizmut/Github/tmp/breeze/cmd/32/toggletabbarvisibility.png"
   inkscape:export-xdpi="96"
   inkscape:export-ydpi="96">
  <metadata
     id="metadata10">
    <rdf:RDF>
      <cc:Work
         rdf:about="">
        <dc:format>image/svg+xml</dc:format>
        <dc:type
           rdf:resource="http://purl.org/dc/dcmitype/StillImage" />
        <dc:title></dc:title>
      </cc:Work>
    </rdf:RDF>
  </metadata>
  <defs
     id="defs8" />
  <sodipodi:namedview
     pagecolor="#ffffff"
     bordercolor="#666666"
     borderopacity="1"
     objecttolerance="10"
     gridtolerance="10"
     guidetolerance="10"
     inkscape:pageopacity="0"
     inkscape:pageshadow="2"
     inkscape:window-width="1360"
     inkscape:window-height="714"
     id="namedview6"
     showgrid="true"
     inkscape:zoom="19.666667"
     inkscape:cx="23.312731"
     inkscape:cy="20.61853"
     inkscape:window-x="0"
     inkscape:window-y="28"
     inkscape:window-maximized="1"
     inkscape:current-layer="svg4">
    <inkscape:grid
       type="xygrid"
       id="grid817" />
  </sodipodi:namedview>
  <path
     d="M 4,5 V 6.33333 L 4.0254237,26.971755 4,28 H 28 L 28.025424,26.971755 28,8.99999 26.974576,9.0282353 24.00001,8.99999 H 14 L 13.99997,8 14,5 H 13 5 Z M 15.00003,5 15,8 H 25.99997 L 26,5 Z M 5,6 h 8 l 0.02542,3.9717547 H 24.02543 L 27,10 V 27 L 5.0254237,26.971755 Z"
     id="path2"
     inkscape:connector-curvature="0"
     style="fill:#4d4d4d;stroke-width:1.33333004"
     sodipodi:nodetypes="ccccccccccccccccccccccccccsc" />
</svg>
